!!!SOCIAL_FUNCTION:	bird dance songs
!!!PDT:	1956
!!!OTL: No_98_Black_Grass_Dance_Song_(c).krn
!!!LANG: Non-Tone
!!!LING_GROUP: Muskogean
!!!REG: Florida
**kern
*staff1
=1-
=
*clefF4
*k[f#]
*M2/4
8d\L
8d\J
(16d\LL
16A\J)
8A\J
=2
(16B\LL
16A\J)
8A\J
(16G\LL
16D\J)
8D\J
=3
8E\L
8D\J
4D\
=4
4D\
4r
=5
8G\L
8G\J
8G\L
8A\J
=6
(16B\LL
16A\J)
8A\J
(16G\LL
16D\J)
8D\J
=7||
*M3/4
(8E\L
8D\J)
4D\
4D\
==:|!
*-
